!!!!SEGMENT: pl-kk--kk-i-3--025_anonim--ab-arce-siderea.krn
!!!cenid: 15xx:633
!!!COM: Anonim
!!!COM-rismid: pe30004985
!!!CDT:
!!!CNT:
!!!OTL: Ab arce siderea
!!!PDT:
!!!AGN:
!!!SMS-siglum: PL-Kk
!!!SMS-shelfmark: Kk.I.3
!!!SMS-shelfwork: 025 W
!!!SMS-variant:
!!!SMS-altvar:
!!!NIFC-rismid: 1001145525
!!!URL-scan: http://repozytorium.nifc.pl/skany/pl-kk-nut--i-3
!!!ONB-nifc: UWAGA: Discantus (s. 91v-94r, skan 0094-0096), Tenor (s. 86r-70r, skan 0240-0242), Bassus (s. 89v-92r, skan 0393-0395)
!!!AIN: 1 alto 1 bass 1 tenor
!!!key: d:dor
**kern	**text	**text	**kern	**text	**text	**kern	**text	**text
*part3	*part3	*part3	*part2	*part2	*part2	*part1	*part1	*part1
*staff3	*staff3	*staff3	*staff2	*staff2	*staff2	*staff1	*staff1	*staff1
*I"Bassus	*	*	*I"Tenor	*	*	*I"Discantus	*	*
*I'B	*	*	*I'T	*	*	*I'A	*	*
*Ibass	*	*	*Itenor	*	*	*Ialto	*	*
*ICvox	*	*	*ICvox	*	*	*ICvox	*	*
*clefF4	*	*	*clefF3	*	*	*clefC4	*	*
*k[]	*	*	*k[]	*	*	*k[]	*	*
*d:dor	*	*	*d:dor	*	*	*d:dor	*	*
=1-	=1-	=1-	=1-	=1-	=1-	=1-	=1-	=1-
1D	Ab	.	1D	Ab	.	1A	Ab	.
1D	ar-	.	1D	ar-	.	1A	ar-	.
=2-	=2-	=2-	=2-	=2-	=2-	=2-	=2-	=2-
1AA	-ce	.	1C	-ce	.	1c	-ce	.
1GG	si-	.	1D	si-	.	1B	si-	.
=3-	=3-	=3-	=3-	=3-	=3-	=3-	=3-	=3-
1C	-de-	.	1E	-de-	.	1c	-de-	.
*custos:GG	*	*	*	*	*	*	*	*
1D	-re-	.	1F	-re-	.	1A	-re-	.
!LO:LB:g=original	!	!	!	!	!	!	!	!
=4-	=4-	=4-	=4-	=4-	=4-	=4-	=4-	=4-
*	*	*	*custos:F	*	*	*	*	*
1GG	-a	.	1G	-a	.	1B	-a	.
*	*	*	*	*	*	*custos:B	*	*
!	!	!	!LO:LB:g=original	!	!	!	!	!
1D	de-	.	1F	de-	.	1A	de-	.
!	!	!	!	!	!	!LO:LB:g=original	!	!
=5-	=5-	=5-	=5-	=5-	=5-	=5-	=5-	=5-
1GG	-scen-	.	1D	-ſcen-	.	1B	-ſcen-	.
1C	-dens	.	1E	-dens	.	1G	-dens	.
=6-	=6-	=6-	=6-	=6-	=6-	=6-	=6-	=6-
1AA	lux	.	1C	lux	.	1A	lux	.
1D	av-	.	1F	av-	.	2A/	au-	.
.	.	.	.	.	.	1d\	.	.
=7-	=7-	=7-	=7-	=7-	=7-	=7-	=7-	=7-
1AA	-re-	.	1E	-re-	.	.	.	.
*	*	*	*	*	*	*2\right	*	*
.	.	.	.	.	.	2c\	-re-	.
1A	-a	.	1D	-a	.	2d\	-a	.
.	.	.	.	.	.	1f\	vir-	.
=8-	=8-	=8-	=8-	=8-	=8-	=8-	=8-	=8-
2D/	vir-	.	1F	vir-	.	.	.	.
*2\right	*	*	*	*	*	*	*	*
2F\	.	.	.	.	.	2f\	-gi-	.
1C	-gi-	.	1G	-gi-	.	1e	-nis	.
=9-	=9-	=9-	=9-	=9-	=9-	=9-	=9-	=9-
2F\	-nis	.	1A	-nis	.	2c\	in	.
1D	in	.	.	.	.	1f	gre-	.
.	.	.	1G	in	.	.	.	.
*custos:D	*	*	*	*	*	*	*	*
2C/	.	.	.	.	.	1e\	.	.
!LO:LB:g=original	!	!	!	!	!	!	!	!
=10-	=10-	=10-	=10-	=10-	=10-	=10-	=10-	=10-
*	*	*	*custos:E	*	*	*	*	*
1D	gre-	.	1F	gre-	.	.	.	.
*	*	*	*	*	*	*custos:A	*	*
.	.	.	.	.	.	1d	.	.
!	!	!	!LO:LB:g=original	!	!	!	!	!
1AA	-mi-	.	1E	-mi-	.	.	.	.
!	!	!	!	!	!	!LO:LB:g=original	!	!
.	.	.	.	.	.	2A/	-mi-	.
=11-	=11-	=11-	=11-	=11-	=11-	=11-	=11-	=11-
0F;<	-vm	.	0D;	-um	.	0B;<	-vm	.
=12||	=12||	=12||	=12||	=12||	=12||	=12||	=12||	=12||
1F	Pec-	Cu-	1A	Pec-	Cu-	1d	Pec-	Cu-
1C	-ca-	-ius	1G	-ca-	-ius	1c	-ca-	-ius
=13-	=13-	=13-	=13-	=13-	=13-	=13-	=13-	=13-
*lig	*	*	*lig	*	*	*	*	*
1F	-to-	lv-	1F	-to-	lu-	2A/	-to-	lu-
.	.	.	.	.	.	1B	.	.
1G	.	.	1E	.	.	.	.	.
.	.	.	.	.	.	2A/	.	.
*Xlig	*	*	*Xlig	*	*	*	*	*
=14-	=14-	=14-	=14-	=14-	=14-	=14-	=14-	=14-
1F	-rum	-cis	1D	-rum	-cis	1B	-rum	-cis
1C	ab-	ra-	1G	ab-	ra-	1c	ab-	ra-
=15-	=15-	=15-	=15-	=15-	=15-	=15-	=15-	=15-
1BB	-stu-	-di-	1G	-stu-	-ri-	1B	-stu-	-di-
*custos:D	*	*	*custos:A	*	*	*custos:d	*	*
1AA	-lit	-o	1A	-lit	-o	1A	-lit	-o
!LO:LB:g=original	!	!	!LO:LB:g=original	!	!	!LO:PB:g=original	!	!
=16-	=16-	=16-	=16-	=16-	=16-	=16-	=16-	=16-
1D	te-	il-	1A	te-	il-	1d	te-	il-
2E/	-ne-	-lu-	1G	-ne-	-lv-	1c	-ne-	-lv-
2C/	.	.	.	.	.	.	.	.
=17-	=17-	=17-	=17-	=17-	=17-	=17-	=17-	=17-
2G\	-bras	-stra-	1G	-bras	-stra-	1B	-bras	stra-
1GG	.	-ta	.	.	.	.	.	.
*	*	*	*lig	*	*	*	*	*
.	.	.	1D	et	-ta	1B	et	-ta
2BB/	et	.	.	.	.	.	.	.
=18-	=18-	=18-	=18-	=18-	=18-	=18-	=18-	=18-
1AA	.	.	1E	.	.	2A/	.	.
.	.	.	.	.	.	2c/	.	.
*	*	*	*Xlig	*	*	*	*	*
1FF	con-	con-	1F	con-	con-	2B/	con-	.
.	.	.	.	.	.	1A\	.	con-
=19-	=19-	=19-	=19-	=19-	=19-	=19-	=19-	=19-
1GG	-tu-	-ti-	1D	-tu-	-ti-	.	.	.
.	.	.	.	.	.	2G/	-tu-	-ci-
1G,	-lit	-o	1C	-lit	-o	1A	-lit	-o
=20-	=20-	=20-	=20-	=20-	=20-	=20-	=20-	=20-
1C	mi-	gav-	1E	mi-	gau-	1A	mi-	gav-
1D	-se-	-de	1F	-se-	-de	1F	-se-	-de
=21-	=21-	=21-	=21-	=21-	=21-	=21-	=21-	=21-
*custos:C	*	*	*	*	*	*	*	*
1GG	-ris	at	1D	-ris	at	1G	-ris	at
!LO:PB:g=original	!	!	!	!	!	!	!	!
*lig	*	*	*	*	*	*	*	*
*	*	*	*	*	*	*custos:F	*	*
1C	re-	fi-	1E	re-	fi-	1E	re-	fi-
!	!	!	!	!	!	!LO:LB:g=original	!	!
=22-	=22-	=22-	=22-	=22-	=22-	=22-	=22-	=22-
*	*	*	*custos:D	*	*	*	*	*
1AA	-me-	-de-	1C	-me-	-de-	1F	-me-	-de-
*Xlig	*	*	*	*	*	*	*	*
!	!	!	!LO:PB:g=original	!	!	!	!	!
0.D;	-diu(m)	-lium	1D	-di-	-li-	1F	-di-	-li-
=23-	=23-	=23-	=23-	=23-	=23-	=23-	=23-	=23-
.	.	.	0D;	-um	-um	0F;	-vm	-um
=24||	=24||	=24||	=24||	=24||	=24||	=24||	=24||	=24||
1AA	Hec	Hu-	1A	Hec	Huic	1c	Hec	Hu-
2C/	no-	-ic	1A	no-	pa-	2c\	no-	-ic
2D/	.	pa-	.	.	.	2d\	-va	pa-
=25-	=25-	=25-	=25-	=25-	=25-	=25-	=25-	=25-
2E/	-va	-ter	1G	-va	-ter	1e	.	-ter
2G\	.	.	.	.	.	.	.	.
2A\	lux	in-	1c	lux	in-	2c\	lux	in-
2F\	.	-ge-	.	.	.	2d\	.	.
=26-	=26-	=26-	=26-	=26-	=26-	=26-	=26-	=26-
*custos:C	*	*	*	*	*	*	*	*
1G	o-	.	1B	o-	-ge-	1B	o-	-ge-
*	*	*	*	*	*	*custos:d	*	*
!LO:LB:g=original	!	!	!	!	!	!	!	!
1C	-pus	-ni-	1G	-pvs	-ni-	1c	-pus	-ni-
!	!	!	!	!	!	!LO:LB:g=original	!	!
=27-	=27-	=27-	=27-	=27-	=27-	=27-	=27-	=27-
1F	est	-tus	1A	est	-tus	1d	est	-tus
*	*	*	*custos:c	*	*	*	*	*
2D/	in	pre-	1A	in	pre-	1d	in	pre-
2F/	.	-mi-	.	.	.	.	.	.
!	!	!	!LO:LB:g=original	!	!	!	!	!
=28-	=28-	=28-	=28-	=28-	=28-	=28-	=28-	=28-
2C/	mun-	.	1c	mu(n)-	-mi-	1c	mu(n)-	-mi-
*clefF3	*	*	*	*	*	*	*	*
1c	-do	-sit	.	.	.	.	.	.
.	.	.	1G	-do	-ſit	2B/	-do	-sit
2B\	qvi	di-	.	.	.	1e\	.	di-
=29-	=29-	=29-	=29-	=29-	=29-	=29-	=29-	=29-
*	*	*	*lig	*	*	*	*	*
1A	.	-vi-	1D	qvi	di-	.	.	.
.	.	.	.	.	.	2d\	qui	-vi-
1G	na-	.	1E	.	-ui-	1e	na-	.
*	*	*	*Xlig	*	*	*	*	*
=30-	=30-	=30-	=30-	=30-	=30-	=30-	=30-	=30-
2F/	-tvs	-ni-	1F	na-	-ni-	2A/	-tus	-ni-
1A	.	-tus	.	.	.	2B/	.	.
*	*	*	*lig	*	*	*	*	*
.	.	.	1E	-tus	-tus	1c	.	.
2G\	est	.	.	.	.	.	.	.
=31-	=31-	=31-	=31-	=31-	=31-	=31-	=31-	=31-
*custos:B	*	*	*	*	*	*	*	*
2A\	.	.	1D	.	.	1d	.	.
!LO:LB:g=original	!	!	!	!	!	!	!	!
2B\	.	.	.	.	.	.	.	.
*	*	*	*Xlig	*	*	*	*	*
1c	.	.	1C	est	.	1c	est	-tus
=32-	=32-	=32-	=32-	=32-	=32-	=32-	=32-	=32-
*	*	*	*	*	*	*custos:e	*	*
1C	pro	ga-	1E	pro	ga-	2c\	pro	ga-
!	!	!	!	!	!	!LO:LB:g=original	!	!
.	.	.	.	.	.	1e	sa-	-bri-
2E/	sa-	-bri-	1G	sa-	-bri-	.	.	.
1G\	-lv-	-e-	.	.	.	2e\	-lv-	-e-
=33-	=33-	=33-	=33-	=33-	=33-	=33-	=33-	=33-
.	.	.	1A	-lu-	-e-	2c\	.	-lem
2F/	-te	-lem	.	.	.	2d\	.	nun-
2G/	.	.	1G	-te	-lem	2B/	-te	.
2C/	gen-	.	.	.	.	1c\	gen-	.
=34-	=34-	=34-	=34-	=34-	=34-	=34-	=34-	=34-
1D	-ti-	nu(n)-	1F	gen-	nu(n)-	.	.	.
.	.	.	.	.	.	1B	.	-cti-
1AA	.	-cti-	1E	-ti-	-cti-	.	.	.
.	.	.	.	.	.	2A/	-ti-	-um
=35-	=35-	=35-	=35-	=35-	=35-	=35-	=35-	=35-
*custos:AA	*	*	*custos:A	*	*	*	*	*
0A;	-um	-um	0D;<	-um	-um	0B;<	-um	.
!LO:LB:g=original	!	!	!LO:LB:g=original	!	!	!	!	!
=36||	=36||	=36||	=36||	=36||	=36||	=36||	=36||	=36||
*clefF4	*	*	*	*	*	*	*	*
1AA	A-	Si-	1A	A-	Si-	1c	A-	Si-
1D	-ve	-ne	1A	-ve	-ne	1d	-ve	-ne
=37-	=37-	=37-	=37-	=37-	=37-	=37-	=37-	=37-
*	*	*	*	*	*	*custos:c	*	*
1E	di-	vi-	1G	di-	vi-	1e	di-	vi-
!	!	!	!	!	!	!LO:LB:g=original	!	!
1C	-xit	-ri	1c	-xit	-ri	1c	-xit	-ri
=38-	=38-	=38-	=38-	=38-	=38-	=38-	=38-	=38-
1G	an-	se-	1B	an-	se-	1B	an-	se-
1E	-ge-	-mi-	1G	-ge-	-mi-	1c	-ge-	-mi-
=39-	=39-	=39-	=39-	=39-	=39-	=39-	=39-	=39-
1F	-lus	-ne	1A	-lus	-ne	1A	-lvs	-ne
1F	ex	ple-	1A	ex	ple-	1d	ex	ple-
=40-	=40-	=40-	=40-	=40-	=40-	=40-	=40-	=40-
2G\	te	-na	1G	te	-na	2B/	te	-na
2C/	.	.	.	.	.	1c	.	san-
*	*	*	*lig	*	*	*	*	*
1D	vir-	san-	1F	vir-	san-	.	.	.
.	.	.	.	.	.	1B\	vir-	.
=41-	=41-	=41-	=41-	=41-	=41-	=41-	=41-	=41-
*custos:BB	*	*	*	*	*	*	*	*
1AA	.	.	1E	.	.	.	.	.
.	.	.	.	.	.	2A/	.	.
*	*	*	*Xlig	*	*	*	*	*
!LO:LB:g=original	!	!	!	!	!	!	!	!
1BB	-go	-cto	1D	-go	-cto	1B	-go	-cto
=42-	=42-	=42-	=42-	=42-	=42-	=42-	=42-	=42-
*	*	*	*custos:G	*	*	*	*	*
1C	fi-	fla-	1G	fi-	fla-	1c	fi-	.
!	!	!	!LO:LB:g=original	!	!	!	!	!
2C/	-li-	-mi-	1G	-li-	-mi-	2c/	-li-	fla-
*	*	*	*	*	*	*custos:A	*	*
2BB/	-us	-ne	.	.	.	2B/	.	-mi-
!	!	!	!	!	!	!LO:PB:g=original	!	!
=43-	=43-	=43-	=43-	=43-	=43-	=43-	=43-	=43-
1AA,	.	.	1A	-us	-ne	1A	-us	-ne
1D	nas-	con-	1A	na-	con-	1d	nas-	con-
=44-	=44-	=44-	=44-	=44-	=44-	=44-	=44-	=44-
1C	-ce-	-ci-	1c	-sce-	-ci-	1c	-ce-	-ci-
1G	-tur	-pi-	1d	-tur	-pi-	1B	-tur	-pi-
=45-	=45-	=45-	=45-	=45-	=45-	=45-	=45-	=45-
*	*	*	*lig	*	*	*lig	*	*
1F	pax	-es	1A	pax	-es	1d	pax	-es
1G	.	.	1B	.	.	1B	.	.
*	*	*	*Xlig	*	*	*Xlig	*	*
=46-	=46-	=46-	=46-	=46-	=46-	=46-	=46-	=46-
1C	gen-	par-	1c	gen-	par-	2c\	.	par-
.	.	.	.	.	.	1e	gen-	-vu-
*custos:E	*	*	*	*	*	*	*	*
1D	-ci-	-vu-	1A	-ti-	-vu-	.	.	.
.	.	.	.	.	.	2d\	-ti-	.
!LO:PB:g=original	!	!	!	!	!	!	!	!
=47-	=47-	=47-	=47-	=47-	=47-	=47-	=47-	=47-
2E/	-vm	-lum	1G	-um	-lum	1e,	-um	-lum
2C/	vi-	.	.	.	.	.	.	.
1G	-ta	qvi	1B	vi-	qvi	1e	vi-	qui
=48-	=48-	=48-	=48-	=48-	=48-	=48-	=48-	=48-
1A	sa-	sal-	1c	-ta	sal-	1c	-ta	sal-
*	*	*	*custos:B	*	*	*custos:B	*	*
2F/	-lvs	-ua-	1A	sa-	-ua-	1d	sa-	-uabit
2D/	.	-bit	.	.	.	.	.	.
!	!	!	!LO:LB:g=original	!	!	!LO:LB:g=original	!	!
=49-	=49-	=49-	=49-	=49-	=49-	=49-	=49-	=49-
1G	om-	po-	1B	-lus	-bit	1B	-lus	-bit
1E	-ni-	-pu-	1G	om-	po-	1c	om-	po-
=50-	=50-	=50-	=50-	=50-	=50-	=50-	=50-	=50-
0.D;l	-vm	-lum	1A	-ni-	-pu-	1d	-ni-	-pu-
.	.	.	0A;<l	-vm	-lum	0d;<	-um	-lum
=51-	=51-	=51-	=51-	=51-	=51-	=51-	=51-	=51-
.	.	.	.	.	.	.	.	.
=||	=||	=||	=||	=||	=||	=||	=||	=||
1AA	Hec	A-	1A	Hec	A-	1c	Hec	A-
=52-	=52-	=52-	=52-	=52-	=52-	=52-	=52-	=52-
*custos:AA	*	*	*	*	*	*	*	*
1E	vt	-it	1G	ut	-it	1e	vt	-it
!LO:LB:g=original	!	!	!	!	!	!	!	!
1AA	au-	il-	1A	av-	il-	2d\	au-	il-
.	.	.	.	.	.	1c\	.	.
=53-	=53-	=53-	=53-	=53-	=53-	=53-	=53-	=53-
2C/	-dit	-la	1A	-dit	-la	.	.	.
2AA,/	.	.	.	.	.	2A/	-dit	-la
*	*	*	*	*	*	*custos:d	*	*
2C/	vir-	sum	1A	vir-	sum	2c/	vir-	sum
!	!	!	!	!	!	!LO:LB:g=original	!	!
2D/	-go	.	.	.	.	2d\	-go	.
=54-	=54-	=54-	=54-	=54-	=54-	=54-	=54-	=54-
*	*	*	*custos:A	*	*	*	*	*
1E	.	an-	1G	-go	an-	1e	.	an-
!	!	!	!LO:PB:g=original	!	!	!	!	!
*	*	*	*clefF4	*	*	*	*	*
1AA	plau-	-cil-	1A	plav-	-cil-	2d\	plav-	-cil-
.	.	.	.	.	.	1c\	.	-la
=55-	=55-	=55-	=55-	=55-	=55-	=55-	=55-	=55-
2AA/	-dit	-la	1A	-dit	-la	.	.	.
2A\	.	.	.	.	.	2A/	-dit	.
2F\	et	re-	1D	et	re-	1d	et	re-
1D\	fi-	-gis	.	.	.	.	.	.
=56-	=56-	=56-	=56-	=56-	=56-	=56-	=56-	=56-
.	.	.	1F	fi-	-gis	2B/	fi-	-gis
1F	-de-	hv-	.	.	.	2A/	.	.
.	.	.	1A	-de-	hu-	2d\	-de-	Hu-
1C/	-li	-ius	.	.	.	2c\	-li	.
=57-	=57-	=57-	=57-	=57-	=57-	=57-	=57-	=57-
.	.	.	1G	-li	-ius	1e	ga-	-ius
*custos:F	*	*	*	*	*	*	*	*
2E/	.	de-	.	.	.	.	.	.
!LO:LB:g=original	!	!	!	!	!	!	!	!
2F\	ga-	.	1F	ga-	def-	2A/	.	de-
1D\	.	-fers	.	.	.	2B/	.	-fers
=58-	=58-	=58-	=58-	=58-	=58-	=58-	=58-	=58-
*	*	*	*	*	*	*custos:d	*	*
.	.	.	1E	-bri-	-fers	1c	-bri-	.
2C/	.	.	.	.	.	.	.	.
!	!	!	!	!	!	!LO:LB:g=original	!	!
1D	.	cu-	1D	-e-	.	1d	.	.
=59-	=59-	=59-	=59-	=59-	=59-	=59-	=59-	=59-
1AA	-bri-	-ius	1C	.	.	1c	.	.
*lig	*	*	*lig	*	*	*	*	*
1BB	-e-	.	1D	.	cu-	1B	.	.
=60-	=60-	=60-	=60-	=60-	=60-	=60-	=60-	=60-
1AA	.	.	1E	.	.	1A	.	cu-
*Xlig	*	*	*Xlig	*	*	*	*	*
*	*	*	*custos:F	*	*	*	*	*
2AA/	-li	ma(n)-	1E	-li	-ius	2A/	-e-	-ius
2GG/	.	.	.	.	.	2G/	-li	.
!	!	!	!LO:LB:g=original	!	!	!	!	!
=61-	=61-	=61-	=61-	=61-	=61-	=61-	=61-	=61-
*	*	*	*clefF3	*	*	*	*	*
*	*	*	*lig	*	*	*	*	*
1FF	.	.	1F	ver-	man-	1F	ver-	man-
1AA	ver-	-da-	1E	.	.	1A	.	-da-
*	*	*	*Xlig	*	*	*	*	*
=62-	=62-	=62-	=62-	=62-	=62-	=62-	=62-	=62-
1BB	-ba	-ta	1D	-ba	-da-	1B	-ba	-ta
*	*	*	*lig	*	*	*	*	*
2GG/	re-	sa-	1G	re-	-ta	1G	red-	sa-
2G\	.	.	.	.	.	.	.	.
=63-	=63-	=63-	=63-	=63-	=63-	=63-	=63-	=63-
*custos:F	*	*	*	*	*	*	*	*
2A\	.	.	1F	.	.	1F	.	-lv-
!LO:LB:g=original	!	!	!	!	!	!	!	!
1F	-dit	-lu-	.	.	.	.	.	.
*	*	*	*Xlig	*	*	*	*	*
*	*	*	*lig	*	*	*	*	*
.	.	.	1G	-dit	sa-	2E/	.	.
2E/	.	.	.	.	.	1E/	-dit	.
=64-	=64-	=64-	=64-	=64-	=64-	=64-	=64-	=64-
1D	.	.	1A	.	.	.	.	.
*	*	*	*	*	*	*custos:G	*	*
.	.	.	.	.	.	1D	dul-	.
*	*	*	*Xlig	*	*	*	*	*
2BB/	dul-	.	1D	dul-	-lu-	.	.	.
!	!	!	!	!	!	!LO:LB:g=original	!	!
2GG/	.	-bri-	.	.	.	2G/	.	.
=65-	=65-	=65-	=65-	=65-	=65-	=65-	=65-	=65-
*	*	*	*lig	*	*	*	*	*
1D	.	.	1F	-ci-	-bri-	2A/	.	.
.	.	.	.	.	.	2D/	.	.
1AA	-ci-	.	1E	.	.	1A	-ci-	-bri-
*	*	*	*Xlig	*	*	*	*	*
=66-	=66-	=66-	=66-	=66-	=66-	=66-	=66-	=66-
0D;<l	-a	-a	0D;l	-a	-a	0A;;	-a	-a
=67||	=67||	=67||	=67||	=67||	=67||	=67||	=67||	=67||
1AA	Vt	Ad	1A	Vt	Ad	1c	Vt	Ad
1BB	an-	hec	1G	an-	hec	1d	an-	Hec
=68-	=68-	=68-	=68-	=68-	=68-	=68-	=68-	=68-
*custos:FF	*	*	*custos:A	*	*	*	*	*
1AA	-cil-	ver-	1A	-cil-	ver-	1c	-cil-	ver-
*	*	*	*	*	*	*custos:B	*	*
!LO:LB:g=original	!	!	!LO:LB:g=original	!	!	!	!	!
2FF/	-le	-ba	1A	-le	-ba	1c	-le	-ba
1F\	man-	non	.	.	.	.	.	.
!	!	!	!	!	!	!LO:PB:g=original	!	!
=69-	=69-	=69-	=69-	=69-	=69-	=69-	=69-	=69-
.	.	.	1D	man-	non	2B/	man-	non
1D	-dat	su-	.	.	.	1d	-dat	su-
.	.	.	1F	-dat	su-	.	.	.
2F\	.	-per-	.	.	.	1B\	.	-per-
=70-	=70-	=70-	=70-	=70-	=70-	=70-	=70-	=70-
1G	il-	-ba	1E	il-	-per-	.	.	.
.	.	.	.	.	.	2A/	il-	-ba
1A	-le	.	1D	-le	-ba	1B	-le	.
=71-	=71-	=71-	=71-	=71-	=71-	=71-	=71-	=71-
1AA	fi-	vir-	1A	fi-	vir-	1A	fi-	vir-
1BB	-am	-ga	1G	-am	-ga	1B	-am	-ga
=72-	=72-	=72-	=72-	=72-	=72-	=72-	=72-	=72-
1AA	pa-	flo-	1A	pa-	flo-	1A	pa-	flo-
2FF/	-rens	-rem	1A	-rens	-rem	1A	-rens	-lem
1F\	li-	stel-	.	.	.	.	.	.
=73-	=73-	=73-	=73-	=73-	=73-	=73-	=73-	=73-
.	.	.	1D	li-	stel-	1d	li-	ſtel-
1D	-cet	-la	.	.	.	.	.	.
.	.	.	1E	-cet	-la	1c	-cet	-la
2C/	.	.	.	.	.	.	.	.
=74-	=74-	=74-	=74-	=74-	=74-	=74-	=74-	=74-
*custos:BB	*	*	*custos:E	*	*	*custos:c	*	*
2D/	ca-	so-	1F	ca-	so-	1B	carens	so-
!LO:PB:g=original	!	!	!	!	!	!	!	!
2BB/	.	.	.	.	.	.	.	.
!	!	!	!LO:LB:g=original	!	!	!LO:LB:g=original	!	!
1C	-rens	.	1E	-rens	-lem	2c/	.	.
.	.	.	.	.	.	1A\	.	.
=75-	=75-	=75-	=75-	=75-	=75-	=75-	=75-	=75-
1GG	.	-lem	1D	.	.	.	.	.
.	.	.	.	.	.	2G/	.	-lem
1G	.	.	1C	.	.	1A	con	.
=76-	=76-	=76-	=76-	=76-	=76-	=76-	=76-	=76-
2G\	.	.	1E	con	flo-	1e	iu-	flo-
1C	con	flo-	.	.	.	.	.	.
.	.	.	1G	iu-	-rem	2c/	-ga-	-rem
2BB/	iu-	-rem	.	.	.	2B/	.	i-
=77-	=77-	=77-	=77-	=77-	=77-	=77-	=77-	=77-
2AA/	-ga-	i-	1A	-ga-	gi-	2A/	-li	-gnit
2FF/	-li	-gnit	.	.	.	2d\	co-	vir-
1C	co-	vir-	1G	-li	-gnit	4c/	.	.
.	.	.	.	.	.	4B/	.	.
.	.	.	.	.	.	4A/	.	.
.	.	.	.	.	.	4G/	.	.
=78-	=78-	=78-	=78-	=78-	=78-	=78-	=78-	=78-
*lig	*	*	*	*	*	*	*	*
1D	-pu-	-gu-	1F	co-	vir-	2F/	.	.
*	*	*	*	*	*	*custos:A	*	*
.	.	.	.	.	.	1B	.	.
1AA	.	.	1E	-pu-	-gv-	.	.	.
!	!	!	!	!	!	!LO:LB:g=original	!	!
.	.	.	.	.	.	2A/	-pu-	-gv-
*Xlig	*	*	*	*	*	*	*	*
=79-	=79-	=79-	=79-	=79-	=79-	=79-	=79-	=79-
*custos:C	*	*	*custos:E	*	*	*	*	*
0D;<l	-la	-la	0D;l	-la	-la	0B;;	-la	-la
!LO:LB:g=original	!	!	!LO:LB:g=original	!	!	!	!	!
=80||	=80||	=80||	=80||	=80||	=80||	=80||	=80||	=80||
1C	Ex	No-	1E	Ex	No-	1c	Ex	No-
2GG/	ma-	-bis	1G	ma-	-bis	2B/	ma-	-bis
1C/	-ri-	er-	.	.	.	1c\	-ri-	er-
=81-	=81-	=81-	=81-	=81-	=81-	=81-	=81-	=81-
.	.	.	1G	-ri-	er-	.	.	.
2BB/	-a	-go	.	.	.	2B/	.	-go
2AA/	.	.	1A	-a	-go	1A	-a	.
1A\	sic	pre-	.	.	.	.	.	.
=82-	=82-	=82-	=82-	=82-	=82-	=82-	=82-	=82-
.	.	.	1A	sic	pre-	2A/	sic	pre-
2F\	.	.	.	.	.	2B/	.	-sen-
*	*	*	*	*	*	*custos:B	*	*
2E/	est	-sen-	1G	est	-ſen-	1c	est	.
2C/	na-	-ta-	.	.	.	.	.	.
!	!	!	!	!	!	!LO:LB:g=original	!	!
=83-	=83-	=83-	=83-	=83-	=83-	=83-	=83-	=83-
*lig	*	*	*	*	*	*	*	*
1D	-tus	-tum	1F	na-	-ta-	1B	na-	-ta-
1AA	.	.	1E	-tus	-tum	1A	-tus	-tum
*Xlig	*	*	*	*	*	*	*	*
=84-	=84-	=84-	=84-	=84-	=84-	=84-	=84-	=84-
1C	rex	ve-	1E	rex	ve-	1c	rex	ve-
1E	meſ-	-ne-	1G	meſ-	-ne-	2c\	meſ-	-ne-
.	.	.	.	.	.	2e\	-si-	.
=85-	=85-	=85-	=85-	=85-	=85-	=85-	=85-	=85-
*custos:A	*	*	*custos:A	*	*	*	*	*
2AA/	-si-	-re-	1A	-si-	-re-	2d\	.	-re-
!LO:LB:g=original	!	!	!	!	!	!	!	!
1A	-as	-mur	.	.	.	1c	-as	-mur
!	!	!	!LO:PB:g=original	!	!	!	!	!
.	.	.	1A	-as	-m(ur)	.	.	.
2F\	.	.	.	.	.	2d,\	.	.
=86-	=86-	=86-	=86-	=86-	=86-	=86-	=86-	=86-
2B\	ap-	re-	1D	ap-	re-	2B/	ap-	re-
2A\	-pel-	-gem	.	.	.	2d\	-pel-	-ge(m)
*lig	*	*	*	*	*	*	*	*
1G	-la-	na-	1E	-pel-	-gem	1c	-la-	.
=87-	=87-	=87-	=87-	=87-	=87-	=87-	=87-	=87-
1C	.	.	1G	-la-	na-	1c	.	na-
*Xlig	*	*	*	*	*	*	*	*
*	*	*	*	*	*	*custos:B	*	*
1D	.	.	1F	.	.	2F/	.	.
!	!	!	!	!	!	!LO:LB:g=original	!	!
.	.	.	.	.	.	1B\	.	.
=88-	=88-	=88-	=88-	=88-	=88-	=88-	=88-	=88-
1AA	.	.	1E	.	.	.	.	.
.	.	.	.	.	.	2A/	.	.
1BB	-tus	-tum	1D	-tus	-tum	1B	-tus	-tum
=89-	=89-	=89-	=89-	=89-	=89-	=89-	=89-	=89-
1AA	.	.	1E	.	.	1A	qvem	qui
1A	qvem	qui	1F	qvem	qvi	2A/	.	.
.	.	.	.	.	.	2B/	.	.
=90-	=90-	=90-	=90-	=90-	=90-	=90-	=90-	=90-
1G	.	.	1E	.	.	1c	.	.
1F	.	.	1D	.	.	1d	nas-	na-
=91-	=91-	=91-	=91-	=91-	=91-	=91-	=91-	=91-
2C/	na-	na-	1G	nas-	na-	2c\	-ci-	-tus
*custos:D	*	*	*	*	*	*	*	*
2E/	.	.	.	.	.	1e	.	.
*	*	*	*custos:C	*	*	*	*	*
!LO:LB:g=original	!	!	!	!	!	!	!	!
1D	-sci-	-tus	1A	-ci-	-tus	.	.	.
.	.	.	.	.	.	2d\	-tu-	no-
!	!	!	!LO:LB:g=original	!	!	!	!	!
=92-	=92-	=92-	=92-	=92-	=92-	=92-	=92-	=92-
*	*	*	*	*	*	*custos:c	*	*
2C/	-tu-	no-	1c	-tu-	no-	1c	.	.
2AA/	.	.	.	.	.	.	.	.
!	!	!	!	!	!	!LO:PB:g=original	!	!
1E	.	.	1B	.	.	1c	.	.
=93-	=93-	=93-	=93-	=93-	=93-	=93-	=93-	=93-
2AA/	.	.	1A	.	.	2c/	-rum	-va
1D	.	.	.	.	.	2d\	.	.
.	.	.	1A	-rum	-va	1c	can-	gau-
2C/	.	.	.	.	.	.	.	.
=94-	=94-	=94-	=94-	=94-	=94-	=94-	=94-	=94-
2D/	-rum	-va	1A	can-	gau-	2B/	-ti-	-di-
2AA/	.	gau-	.	.	.	2A/	.	.
1BB	can-	-di-	1D	-ti-	-di-	1B	-ca	-a
=95-	=95-	=95-	=95-	=95-	=95-	=95-	=95-	=95-
2AA/	-ti-	.	1A	-ca	-a	2A/	.	.
2FF/	.	.	.	.	.	1d	.	.
1C	-ca	-a	1G	.	.	.	.	.
.	.	.	.	.	.	2c\	.	.
=96-	=96-	=96-	=96-	=96-	=96-	=96-	=96-	=96-
*custos:GG	*	*	*	*	*	*	*	*
1D	.	.	1F	.	.	1d	pre-	.
!LO:LB:g=original	!	!	!	!	!	!	!	!
*	*	*	*lig	*	*	*	*	*
2GG/	.	.	1G	.	.	2B/	-di-	de-
*	*	*	*	*	*	*custos:A	*	*
1C/	.	.	.	.	.	1c\	-xe-	-dit
=97-	=97-	=97-	=97-	=97-	=97-	=97-	=97-	=97-
.	.	.	1E	.	.	.	.	.
!	!	!	!	!	!	!LO:LB:g=original	!	!
1AA	.	.	.	.	.	1A	.	.
*	*	*	*Xlig	*	*	*	*	*
.	.	.	1F	pre-	de-	.	.	.
1D\	pre-	de-	.	.	.	2B/	.	.
=98-	=98-	=98-	=98-	=98-	=98-	=98-	=98-	=98-
*	*	*	*custos:D	*	*	*	*	*
.	.	.	1G	-di-	-dit	1c	-ru(n)t	re-
2C/	-di-	-dit	.	.	.	.	.	.
!	!	!	!LO:LB:g=original	!	!	!	!	!
1D	-xe-	re-	1D	-xe-	re-	2d\	.	-no-
.	.	.	.	.	.	2B/	pro-	-uans
=99-	=99-	=99-	=99-	=99-	=99-	=99-	=99-	=99-
1F	-ru(n)t	-no-	1D	-ru(n)t	-no-	1d	.	.
2G\	pro-	-va(n)s	1C	pro-	-vans	1c	.	.
2C/	-phe-	om-	.	.	.	.	.	.
=100-	=100-	=100-	=100-	=100-	=100-	=100-	=100-	=100-
1D	-ti-	.	1F	-phe-	om-	1B	-phe-	om-
1AA	.	-ni-	1E	-ti-	-ni-	1A	-ti-	-ni-
=101-	=101-	=101-	=101-	=101-	=101-	=101-	=101-	=101-
*custos:F	*	*	*	*	*	*custos:A	*	*
0D;<l	-ca	-a	0D;l	-ca	-a	0B;	-ca	-a
!LO:PB:g=original	!	!	!	!	!	!LO:LB:g=original	!	!
=102||	=102||	=102||	=102||	=102||	=102||	=102||	=102||	=102||
1F	O	Vt	1F	O	Vt	0A	O	Vt
1C	ma-	quos	1E	Ma-	qvos	.	.	.
=103-	=103-	=103-	=103-	=103-	=103-	=103-	=103-	=103-
1E	-ri-	i-	1G	-ri-	ip-	1G	ma-	qvos
*	*	*	*custos:D	*	*	*	*	*
2F/	-a	-pse	1D	-a	-ſe	1B	-ria	ipse
1D\	vas	iam	.	.	.	.	.	.
!	!	!	!LO:LB:g=original	!	!	!	!	!
=104-	=104-	=104-	=104-	=104-	=104-	=104-	=104-	=104-
.	.	.	1D	vas	iam	1F	vas	iam
2F/	.	re-	.	.	.	.	.	.
1C	pu-	-de-	1C	pu-	re-	1A	pv-	re-
=105-	=105-	=105-	=105-	=105-	=105-	=105-	=105-	=105-
1E	-do-	-mit	1E	-do-	-de-	1G	-do-	-de-
1D	-ris	et	1F	-ris	-mit	1B	-ris	-mit
=106-	=106-	=106-	=106-	=106-	=106-	=106-	=106-	=106-
1C	no-	cru-	1A	no-	et	1c	no-	et
*custos:D	*	*	*	*	*	*	*	*
1E	-stri	-o-	1G	-stri	crv-	1e	-stri	cru-
!LO:LB:g=original	!	!	!	!	!	!	!	!
=107-	=107-	=107-	=107-	=107-	=107-	=107-	=107-	=107-
1D	ma-	-re	1B	ma-	-o-	1d	ma-	-o-
1F	-ter	Sa-	1F	-ter	-re	1f	-ter	-re
=108-	=108-	=108-	=108-	=108-	=108-	=108-	=108-	=108-
*	*	*	*	*	*	*custos:e	*	*
1C	sal-	-cro	1A	sal-	sa-	2c/	sal-	Sacro
!	!	!	!	!	!	!LO:LB:g=original	!	!
.	.	.	.	.	.	1e	-va-	.
2E/	-va-	.	1G	-va-	-cro	.	.	.
2G\	.	.	.	.	.	1c\	.	-e-
=109-	=109-	=109-	=109-	=109-	=109-	=109-	=109-	=109-
1F	.	.	1F	.	e-	.	.	.
.	.	.	.	.	.	2B/	.	.
*	*	*	*custos:A	*	*	*	*	*
1E	.	.	1E	.	.	1c	.	.
!	!	!	!LO:LB:g=original	!	!	!	!	!
=110-	=110-	=110-	=110-	=110-	=110-	=110-	=110-	=110-
1AA	-to-	e-	1A	-to-	-mit	2c/	-to-	-e-
.	.	.	.	.	.	1f	-ris	-mit
2AA/	-ris	-mit	1A	-ris	pre-	.	.	.
2C,/	.	.	.	.	.	2e,\	.	.
=111-	=111-	=111-	=111-	=111-	=111-	=111-	=111-	=111-
1D	hac	pre-	1d	hac	-ce	1d	hac	pre-
1AA	in	-ce	1c	in	pi-	1c	in	-ce
=112-	=112-	=112-	=112-	=112-	=112-	=112-	=112-	=112-
*custos:GG	*	*	*	*	*	*	*	*
2BB/	di-	pi-	1B	di-	-a	2B/	di-	pi-
!LO:LB:g=original	!	!	!	!	!	!	!	!
2GG/	.	.	.	.	.	1e	.	-a
1D	.	.	1A	.	.	.	.	.
.	.	.	.	.	.	2d\	.	.
=113-	=113-	=113-	=113-	=113-	=113-	=113-	=113-	=113-
1E	-e	-a	1G	-e	.	2c/	.	.
*	*	*	*	*	*	*custos:A	*	*
.	.	.	.	.	.	2B/	.	.
!	!	!	!	!	!	!LO:LB:g=original	!	!
1F	tu	nos	1c	tu	nos	1A	-e	nos
=114-	=114-	=114-	=114-	=114-	=114-	=114-	=114-	=114-
2F/	meſ-	.	1A	Meſ-	ad	2A/	tu	ad
2D/	-si-	ad	.	.	.	1d	meſ-	ſv-
2E/	.	sv-	1G	-si-	su-	.	.	.
2C/	.	.	.	.	.	1c\	-si-	-a
=115-	=115-	=115-	=115-	=115-	=115-	=115-	=115-	=115-
1D	.	.	1F	.	.	.	.	.
.	.	.	.	.	.	2B/	.	du-
1C	.	.	1E	.	.	1c	.	-cat
=116-	=116-	=116-	=116-	=116-	=116-	=116-	=116-	=116-
*	*	*	*custos:E	*	*	*	*	*
2C/	.	.	1E	-e	-a	2c/	-e	.
2BB/	-e	a	.	.	.	2B/	.	.
!	!	!	!LO:PB:g=original	!	!	!	!	!
1AA	ser-	du-	1E	ser-	du-	1A	ſer-	ad
=117-	=117-	=117-	=117-	=117-	=117-	=117-	=117-	=117-
*custos:F	*	*	*	*	*	*	*	*
1E	-vos	-cat	1G	-vos	-cat	1G	-vos	pa-
!LO:LB:g=original	!	!	!	!	!	!	!	!
2F\	re-	ad	1A	re-	ad	2F/	re-	.
2D/	-con-	pa-	.	.	.	1d\	-con-	.
=118-	=118-	=118-	=118-	=118-	=118-	=118-	=118-	=118-
2E/	-ci-	.	1G	-con-	pa-	.	.	.
*	*	*	*	*	*	*custos:B	*	*
2C/	-li-	-la-	.	.	.	1c	.	.
*lig	*	*	*	*	*	*	*	*
1D	-a	-ci-	1F	-ci-	-la-	.	.	.
!	!	!	!	!	!	!LO:PB:g=original	!	!
.	.	.	.	.	.	1B\	-ci-	-la-
=119-	=119-	=119-	=119-	=119-	=119-	=119-	=119-	=119-
1AA	.	-a	1E	-li-	-ci-	.	.	.
.	.	.	.	.	.	2A/	-li-	-ci-
*Xlig	*	*	*	*	*	*	*	*
0A;<	.	.	0D;	-a	-a	0B;	-a	-a
=120-	=120-	=120-	=120-	=120-	=120-	=120-	=120-	=120-
.	.	.	.	.	.	.	.	.
=||	=||	=||	=||	=||	=||	=||	=||	=||
*	*	*	*	*	*	*lig	*	*
1A	A-	.	1D	A-	.	1d	A-	.
=121-	=121-	=121-	=121-	=121-	=121-	=121-	=121-	=121-
2G\	.	.	1E	.	.	1c	.	.
1c	.	.	.	.	.	.	.	.
*	*	*	*	*	*	*Xlig	*	*
.	.	.	1F	.	.	2A/	.	.
1A\	.	.	.	.	.	2B/	.	.
=122-	=122-	=122-	=122-	=122-	=122-	=122-	=122-	=122-
*	*	*	*lig	*	*	*lig	*	*
.	.	.	1E	.	.	1c	.	.
2G\	.	.	.	.	.	.	.	.
2A\	.	.	1D	.	.	1d	.	.
*custos:c	*	*	*	*	*	*	*	*
2B\	.	.	.	.	.	.	.	.
*	*	*	*Xlig	*	*	*Xlig	*	*
!LO:LB:g=original	!	!	!	!	!	!	!	!
=123-	=123-	=123-	=123-	=123-	=123-	=123-	=123-	=123-
*	*	*	*custos:G	*	*	*	*	*
1c	-men	.	1C	-men	.	1c	-men	.
*	*	*	*lig	*	*	*	*	*
*	*	*	*	*	*	*custos:A	*	*
!	!	!	!LO:LB:g=original	!	!	!	!	!
1C	di-	.	1G	di-	.	2c/	di-	.
!	!	!	!	!	!	!LO:LB:g=original	!	!
.	.	.	.	.	.	1A\	.	.
=124-	=124-	=124-	=124-	=124-	=124-	=124-	=124-	=124-
1D	.	.	1F	.	.	.	.	.
.	.	.	.	.	.	2G/	-cant	.
*	*	*	*Xlig	*	*	*	*	*
*	*	*	*lig	*	*	*	*	*
2C/	-cant	.	1G	-cant	.	2A/	.	.
2BB/	.	.	.	.	.	2B/	om-	.
=125-	=125-	=125-	=125-	=125-	=125-	=125-	=125-	=125-
2AA/	om	.	1A	.	.	2A/	.	.
1D	.	.	.	.	.	1B	.	.
*	*	*	*Xlig	*	*	*	*	*
.	.	.	1D	om-	.	.	.	.
2GG/	.	.	.	.	.	2G/	.	.
=126-	=126-	=126-	=126-	=126-	=126-	=126-	=126-	=126-
*	*	*	*lig	*	*	*	*	*
1D	.	.	1F	-ni-	.	2F/	.	.
.	.	.	.	.	.	1B	.	.
1AA	.	.	1E	.	.	.	.	.
.	.	.	.	.	.	2A/	.	.
*	*	*	*Xlig	*	*	*	*	*
=127-	=127-	=127-	=127-	=127-	=127-	=127-	=127-	=127-
2BB/	.	.	[0D;l	-a	.	2B/	.	.
2AA/	.	.	.	.	.	2A/	.	.
*	*	*	*	*	*	*custos:F	*	*
2GG/	.	.	.	.	.	2G/	.	.
*custos:GG	*	*	*	*	*	*	*	*
!	!	!	!	!	!	!LO:LB:g=original	!	!
2FF/	.	.	.	.	.	2F/	.	.
!LO:PB:g=original	!	!	!	!	!	!	!	!
=128-	=128-	=128-	=128-	=128-	=128-	=128-	=128-	=128-
2GG/	.	.	0D_	.	.	2E/	.	.
2AA/	.	.	.	.	.	1D	.	.
2BB/	.	.	.	.	.	.	.	.
2GG/	.	.	.	.	.	1G-/	.	.
=129-	=129-	=129-	=129-	=129-	=129-	=129-	=129-	=129-
0D;;l	.	.	0D]	.	.	.	.	.
.	.	.	.	.	.	4F/	-ni	.
.	.	.	.	.	.	4E/	.	.
.	.	.	.	.	.	1F;;l	a	.
==	==	==	==	==	==	==	==	==
*-	*-	*-	*-	*-	*-	*-	*-	*-
!!!system-decoration: [(s1,s2,s3)]
!!!RDF**kern: < = below
!!!RDF**kern: l = terminal long
!!!ENC: Anastazja Marusiak
!!!END: 2022-01-11
!!!ENC: Marta Lawrence
!!!END: 2022-01-24
